Flat-Remix-Blue/mimetypes/scalable/encrypted-key.svg

<svg xmlns="http://www.w3.org/2000/svg" xmlns:xlink="http://www.w3.org/1999/xlink" width="36pt" height="36pt" version="1.1" viewBox="0 0 36 36"> <defs> <clipPath id="clip1"> <path d="M 20 2 L 31 2 L 31 13 L 20 13 Z M 20 2"/> </clipPath> <clipPath id="clip2"> <path d="M 20.515625 2.625 L 30.328125 12.4375 L 22.023438 12.4375 C 21.292969 12.4375 20.515625 11.660156 20.515625 10.929688 Z M 20.515625 2.625"/> </clipPath> <image id="image6" width="36" height="36" xlink:href="data:image/png;base64,iVBORw0KGgoAAAANSUhEUgAAACQAAAAkCAYAAADhAJiYAAAABmJLR0QA/wD/AP+gvaeTAAAAmklEQVRYhe3T0QqCQBBG4aOtYEoUvf9Lildltl00C4tkbBeTIP+BAUEYP1YW1Pcqh53B9kbgaVPcwQF0tAmGSrMZ6AKcDQXw+AUVHEAtcAUaewYYgYmC3+cBCkAPnDJQMcoDVNnebgEqQnmAclTz4d0I3P4JStc9AjXvk4qLWQV53LLeEOl05gw4A3dgcPiuUkoppZRSSqk99gLWvSJpuDnlsAAAAABJRU5ErkJggg=="/> </defs> <g> <path style="fill:rgb(90.196%,90.196%,90.196%)" d="M 7.347656 3.152344 C 6.675781 3.152344 6.042969 3.785156 6.042969 4.457031 L 6.042969 31.847656 C 6.042969 32.480469 6.714844 33.152344 7.347656 33.152344 L 28.21875 33.152344 C 28.851562 33.152344 29.523438 32.480469 29.523438 31.847656 L 29.523438 11.632812 L 21.042969 3.152344 Z M 7.347656 3.152344"/> <g clip-path="url(#clip1)"> <g clip-path="url(#clip2)"> <use xlink:href="#image6"/> </g> </g> <path style="fill:rgb(100.000%,100.000%,100.000%)" d="M 21.042969 3.152344 L 29.523438 11.632812 L 22.347656 11.632812 C 21.714844 11.632812 21.042969 10.960938 21.042969 10.328125 Z M 21.042969 3.152344"/> <path style="fill:rgb(0%,0%,0%);fill-opacity:0.352941" d="M 21.148438 14.125 C 19.140625 14.125 17.515625 15.636719 17.515625 17.5 C 17.515625 18.082031 17.675781 18.628906 17.953125 19.109375 C 17.957031 19.109375 17.953125 19.113281 17.953125 19.113281 L 11.21875 25.371094 L 11.21875 26.71875 L 12.671875 26.71875 L 13.15625 26.269531 L 13.15625 25.371094 L 14.125 25.371094 L 14.609375 24.917969 L 15.578125 24.917969 L 16.0625 24.46875 L 16.0625 23.570312 L 16.546875 23.121094 L 17.515625 23.121094 L 17.515625 22.222656 L 19.40625 20.464844 C 19.410156 20.464844 19.414062 20.464844 19.414062 20.464844 C 19.929688 20.722656 20.523438 20.871094 21.148438 20.871094 C 23.15625 20.871094 24.78125 19.363281 24.78125 17.5 L 24.78125 17.484375 C 24.773438 15.625 23.148438 14.125 21.148438 14.125 Z M 21.875 15.925781 C 22.410156 15.925781 22.84375 16.328125 22.84375 16.824219 C 22.84375 17.320312 22.410156 17.722656 21.875 17.722656 C 21.339844 17.722656 20.90625 17.320312 20.90625 16.824219 C 20.90625 16.328125 21.339844 15.925781 21.875 15.925781 Z M 21.875 15.925781"/> </g> </svg>

<svg width="36pt" height="36pt" version="1.1" viewBox="0 0 36 36" xmlns="http://www.w3.org/2000/svg"><defs><filter id="a" x="-.192" y="-.192" width="1.384" height="1.384" color-interpolation-filters="sRGB"><feGaussianBlur stdDeviation="0.67843748"/></filter></defs><path d="m7.3477 3.1523c-0.67188 0-1.3047 0.63281-1.3047 1.3047v27.391c0 0.63281 0.67188 1.3047 1.3047 1.3047h20.871c0.63281 0 1.3047-0.67188 1.3047-1.3047v-20.215l-8.4805-8.4805z" fill="#e5e5e5"/><path d="m20.668 3.5272 8.4805 8.4805h-7.1758c-0.63281 0-1.3047-0.67187-1.3047-1.3047z" filter="url(#a)" opacity=".2"/><path d="m21.043 3.1523 8.4805 8.4805h-7.1758c-0.63281 0-1.3047-0.67187-1.3047-1.3047z" fill="#fff"/><path d="m21.148 14.125c-2.0078 0-3.6328 1.5117-3.6328 3.375 0 0.58203 0.16016 1.1289 0.4375 1.6094 0.003906 0 0 0.003906 0 0.003906l-6.7344 6.2578v1.3477h1.4531l0.48438-0.44922v-0.89844h0.96875l0.48438-0.45312h0.96875l0.48438-0.44922v-0.89844l0.48438-0.44922h0.96875v-0.89844l1.8906-1.7578h0.007812c0.51563 0.25781 1.1094 0.40625 1.7344 0.40625 2.0078 0 3.6328-1.5078 3.6328-3.3711v-0.015625c-0.007812-1.8594-1.6328-3.3594-3.6328-3.3594zm0.72656 1.8008c0.53516 0 0.96875 0.40234 0.96875 0.89844 0 0.49609-0.43359 0.89844-0.96875 0.89844s-0.96875-0.40234-0.96875-0.89844c0-0.49609 0.43359-0.89844 0.96875-0.89844z" fill-opacity=".35294"/></svg>
